symbols/web/g_translate/materialsymbolsoutlined/g_translate_wght600gradN25_40px.svg

<svg xmlns="http://www.w3.org/2000/svg" height="40" width="40"><path d="m20.042 37-1.75-5.125H6.417q-1.459 0-2.438-.958Q3 29.958 3 28.5V6.417q0-1.459.979-2.438Q4.958 3 6.417 3h10.208l1.458 5.083h15.542q1.458 0 2.417.959Q37 10 37 11.5v22.083q0 1.459-.958 2.438-.959.979-2.459.979Zm-8.25-12.583q2.958 0 4.812-1.896t1.854-4.938v-.604q0-.271-.083-.562h-6.75V19h3.833q-.375 1.25-1.333 1.917-.958.666-2.292.666-1.666 0-2.854-1.208-1.187-1.208-1.187-2.917 0-1.75 1.187-2.958 1.188-1.208 2.854-1.208.75 0 1.438.291.687.292 1.229.792l2.083-1.958q-.875-.917-2.145-1.438-1.271-.521-2.646-.521-2.875 0-4.896 2.063-2.021 2.062-2.021 4.896 0 2.916 2.021 4.958 2.021 2.042 4.896 2.042Zm11.333.833 1-.917q-.583-.708-1.104-1.375-.521-.666-.979-1.416Zm2.125-2.208q1.208-1.375 1.854-2.646.646-1.271.854-1.979h-6.75l.459 1.791h1.708q.333.625.792 1.354.458.73 1.083 1.48Zm-3.542 12.25h11.917q.708 0 1.187-.48.48-.479.48-1.229V11.5q0-.75-.48-1.229-.479-.479-1.187-.479H18.667l1.958 6.875h3.333v-1.792h1.75v1.792h6.209v1.75H29.75Q29.375 20 28.5 21.542q-.875 1.541-2.042 2.833l4.667 4.583-1.25 1.209-4.625-4.584-1.5 1.584 1.375 4.708Z"/></svg>

<svg xmlns="http://www.w3.org/2000/svg" height="40" width="40"><path d="M20.042 37 18.292 31.875H6.417Q4.958 31.875 3.979 30.917Q3 29.958 3 28.5V6.417Q3 4.958 3.979 3.979Q4.958 3 6.417 3H16.625L18.083 8.083H33.625Q35.083 8.083 36.042 9.042Q37 10 37 11.5V33.583Q37 35.042 36.042 36.021Q35.083 37 33.583 37ZM11.792 24.417Q14.75 24.417 16.604 22.521Q18.458 20.625 18.458 17.583Q18.458 17.25 18.458 16.979Q18.458 16.708 18.375 16.417H11.625V19H15.458Q15.083 20.25 14.125 20.917Q13.167 21.583 11.833 21.583Q10.167 21.583 8.979 20.375Q7.792 19.167 7.792 17.458Q7.792 15.708 8.979 14.5Q10.167 13.292 11.833 13.292Q12.583 13.292 13.271 13.583Q13.958 13.875 14.5 14.375L16.583 12.417Q15.708 11.5 14.438 10.979Q13.167 10.458 11.792 10.458Q8.917 10.458 6.896 12.521Q4.875 14.583 4.875 17.417Q4.875 20.333 6.896 22.375Q8.917 24.417 11.792 24.417ZM23.125 25.25 24.125 24.333Q23.542 23.625 23.021 22.958Q22.5 22.292 22.042 21.542ZM25.25 23.042Q26.458 21.667 27.104 20.396Q27.75 19.125 27.958 18.417H21.208L21.667 20.208H23.375Q23.708 20.833 24.167 21.562Q24.625 22.292 25.25 23.042ZM21.708 35.292H33.625Q34.333 35.292 34.812 34.812Q35.292 34.333 35.292 33.583V11.5Q35.292 10.75 34.812 10.271Q34.333 9.792 33.625 9.792H18.667L20.625 16.667H23.958V14.875H25.708V16.667H31.917V18.417H29.75Q29.375 20 28.5 21.542Q27.625 23.083 26.458 24.375L31.125 28.958L29.875 30.167L25.25 25.583L23.75 27.167L25.125 31.875Z"/></svg>
